!!!COM: Gabriel Faure/
!!!CNT: Francais
!!!TXO: Francais
!!!OTL: Re^ve d'Amour
!!!OPS: Op. 5
!!!ONM: No. 2
!!!LYR: Victor Hugo
!!!ENC: Jacob Pegg
!!!YOR: Album of Twenty Songs (Vingt Me/lodies,) Volume I
!!!YOR: Edward B. Marks Music Corporation, RCA Building, Radio
!!!YOR: City, New York 20, N.Y.
!!!ODT: 1864/
!!NB: Vocal melody and text only encoded.
!!NB: First instance of melodic material only encoded.
**kern	**silbe
*clef G2	*
*k[b-]	*
*M3/4	*
*MM[allegretto]	*
!!created: 8/20/03 19:53
!!proofed and posted: 8/21/03 20:26
!!edit time: 27 min.
=9	=9
{4cc	{S'il
4cc	est
8b-	un
8a	char-
=10	=10
8g	-mant
8f	ga-
2f}	-zon}
=11	=11
{4.cc	{Que
8cc	le
8b-	ciel
8a	ar-
=12	=12
4g	-ro-
2f}	-se,}
=13	=13
{4f	{Ou\
4f	naisse
4ff	en
=14	=14
4ff	ton-
8ee	-te
8dd	sai-
4dd}	-son}
=15	=15
{4.g	{Quel-
8a	-que
8b-	fleur
8cc	e/-
=16	=16
4b-	-clo-
2a}	-se,}
=17	=17
{8cc	{Ou\
8cc	l'on
4.b-	cueille
8a	a\
=18	=18
8g	plei-
8f	-ne
2f	main.
=19	=19
(8f	lys,
8b-)	|
8dd	che\-
8ff	-vre~
4ff	~feuil-
=20	=20
8ff	-le et
8ee	jas-
2dd}	-min,}
=21	=21
{(8d	{J'en
8g)	|
(8b-	veux
8dd)	|
[4dd	fai-
=22	=22
8dd]	|
8dd	-re
8cc	le
8b-	che-
4b-}	-min}
=23	=23
{8b-	{Ou\
8a	ton
8g	pied
8f	se
4g	po-
=24	=24
4f}	-se.}
4r	.
4r	.
!!rest; repeat material until
=64	=64
{4.g	{Quel-
8a	-que
8b-	dou-
8cc	-ce
=65	=65
4b-	cho-
2a}	-se,}
=66	=66
{4a	{Un
(8ff	re^-
8ee)	|
8dd	-ve
8cc	que
=67	=67
8cc	Dieu
8bn	be/-
2bn}	-nit,}
=68	=68
{(8bn	{Ou\
8cc)	|
8ee	l'a^me
8dd	a\
(8cc	l'a^-
8b-)	|
=69	=69
8bn	-me
8b-	s'u-
2b-}	-nit,}
=70	=70
{8b-	{Oh!
8b-	J'en
4gg	veux
4b-	fai-
=71	=71
8a	-re
8a	le
2ff	nid
=72	=72
8ff	Ou\
8cc	ton
8cc	coeur
8a	se
4g	po-
=73	=73
4f}	-se.}
4r	.
4r	.
*-	*-
